public/assets/svg/brands/gitlab-gray.svg

<?xml version="1.0" encoding="utf-8"?>
<!-- Generator: Adobe Illustrator 24.1.2, SVG Export Plug-In . SVG Version: 6.00 Build 0)  -->
<svg version="1.1" id="Layer_1" xmlns="http://www.w3.org/2000/svg" xmlns:xlink="http://www.w3.org/1999/xlink" x="0px" y="0px"
	 viewBox="0 0 200.4 66.5" style="enable-background:new 0 0 200.4 66.5;" xml:space="preserve">
<style type="text/css">
	.st0{fill:#7B878D;}
	.st1{fill:#BDC5D1;}
	.st2{fill:#E7EAF3;}
</style>
<path class="st0" d="M100.2,66.5l13.3-40.9H86.9L100.2,66.5L100.2,66.5z"/>
<path class="st1" d="M100.2,66.5L86.9,25.6H68.3L100.2,66.5z"/>
<path class="st2" d="M68.3,25.6l-4,12.4c-0.4,1.1,0.1,2.3,1,3.1l34.9,25.4L68.3,25.6L68.3,25.6z"/>
<path class="st0" d="M68.3,25.6h18.6l-8-24.7c-0.4-1.3-2.2-1.3-2.6,0L68.3,25.6L68.3,25.6z"/>
<path class="st1" d="M100.2,66.5l13.3-40.9h18.6L100.2,66.5L100.2,66.5z"/>
<path class="st2" d="M132.1,25.6l4,12.4c0.4,1.1-0.1,2.3-1,3.1l-34.9,25.4L132.1,25.6L132.1,25.6z"/>
<path class="st0" d="M132.1,25.6h-18.6l8-24.7c0.4-1.3,2.2-1.3,2.6,0L132.1,25.6L132.1,25.6z"/>
</svg>

<svg width="201" height="67" viewBox="0 0 201 67" fill="none" xmlns="http://www.w3.org/2000/svg">
<g clip-path="url(#clip0)">
<path d="M100.2 66.5L113.5 25.6H86.9L100.2 66.5Z" fill="#7B878D"/>
<path d="M100.2 66.5L86.9 25.6H68.3L100.2 66.5Z" fill="#BDC5D1"/>
<path d="M68.3 25.6L64.3 38C63.9 39.1 64.4 40.3 65.3 41.1L100.2 66.5L68.3 25.6Z" fill="#E7EAF3"/>
<path d="M68.3 25.6H86.9L78.9 0.899988C78.5 -0.400012 76.7 -0.400012 76.3 0.899988L68.3 25.6Z" fill="#7B878D"/>
<path d="M100.2 66.5L113.5 25.6H132.1L100.2 66.5Z" fill="#BDC5D1"/>
<path d="M132.1 25.6L136.1 38C136.5 39.1 136 40.3 135.1 41.1L100.2 66.5L132.1 25.6Z" fill="#E7EAF3"/>
<path d="M132.1 25.6H113.5L121.5 0.899988C121.9 -0.400012 123.7 -0.400012 124.1 0.899988L132.1 25.6Z" fill="#7B878D"/>
</g>
<defs>
<clipPath id="clip0">
<rect width="200.4" height="66.5" fill="white"/>
</clipPath>
</defs>
</svg>
